src/blocks/ancestor-page-list/icon.svg

<svg width="24" height="24" viewBox="0 0 24 24" fill="none" xmlns="http://www.w3.org/2000/svg">
<path fill-rule="evenodd" clip-rule="evenodd" d="M4 6.5C4 7.33 4.67 8 5.5 8C6.32 8 7 7.33 7 6.5C7 5.68 6.32 5 5.5 5C4.67 5 4 5.68 4 6.5ZM20 6H9V7H20V6ZM7 11.5001L5.03268 11.5076L5.02799 11.5076C4.66401 11.5087 4.31804 11.6338 4.04105 11.8509C4.01421 11.7383 4 11.6209 4 11.5C4 10.68 4.67 10 5.5 10C6.32 10 7 10.68 7 11.5C7 11.5 7 11.5001 7 11.5001ZM11.1089 17L12.0553 16.0035C12.0565 16.0024 12.0576 16.0012 12.0587 16H20V17H11.1089ZM20 11H9V12H20V11Z" fill="black"/>
<path d="M10.8895 14.7778L7.62346 14.7854C7.57942 14.7854 7.53538 14.8158 7.5207 14.8614L7.27116 15.5832C7.24915 15.6592 7.30052 15.7352 7.37392 15.7352H8.64364C8.73905 15.7352 8.79043 15.8567 8.72437 15.9251L6.69869 18.1058H6.70603L7.74823 21.5021C7.77025 21.578 7.71887 21.6464 7.64548 21.6464H6.62529C6.57392 21.6464 6.53722 21.616 6.52254 21.5704L6.00144 19.8305C5.97208 19.7241 5.83264 19.7241 5.79594 19.8229L5.37025 21.0462C5.36291 21.069 5.36291 21.0918 5.37025 21.1146L5.75924 22.5962C5.77392 22.6418 5.81796 22.6797 5.86199 22.6797H9.15006C9.22345 22.6797 9.27483 22.6038 9.25281 22.5354L7.92437 18.2577C7.90969 18.2197 7.92437 18.1741 7.95373 18.1437L10.9702 14.9678C11.0363 14.8994 10.9849 14.7778 10.8895 14.7778Z" fill="black"/>
<path d="M7.02164 13L5.03265 13.0076C4.98862 13.0076 4.94458 13.038 4.9299 13.0836L4.67302 13.8054C4.64366 13.8814 4.70238 13.9573 4.77577 13.9573H5.61247C5.68586 13.9573 5.73724 14.0333 5.71522 14.1093L3.34458 20.8259C3.30789 20.9247 3.17578 20.9247 3.13908 20.8259L1.43633 15.9784C1.40697 15.9024 1.46569 15.8265 1.53908 15.8265H2.3978C2.44183 15.8265 2.48587 15.8568 2.50055 15.9024L3.11706 17.65C3.15376 17.7487 3.28587 17.7487 3.32257 17.65L4.27669 14.9299C4.30605 14.8539 4.24733 14.7779 4.17394 14.7779H0.107895C0.0345005 14.7779 -0.0168755 14.8539 0.0051428 14.9299L3.13174 23.9259C3.16844 24.0247 3.30055 24.0247 3.33724 23.9259L7.12439 13.152C7.14641 13.076 7.09503 13 7.02164 13Z" fill="#D8141C"/>
</svg>

<svg xmlns="http://www.w3.org/2000/svg" width="24" height="24"><path fill-rule="evenodd" d="M4 6.5C4 7.33 4.67 8 5.5 8 6.32 8 7 7.33 7 6.5 7 5.68 6.32 5 5.5 5 4.67 5 4 5.68 4 6.5ZM20 6H9v1h11V6ZM7 11.5l-1.967.008h-.005c-.364 0-.71.126-.987.343A1.504 1.504 0 0 1 5.5 10c.82-.001 1.5.679 1.5 1.499Zm4.109 5.5.946-.997A.056.056 0 0 0 12.06 16H20v1h-8.891ZM20 11H9v1h11v-1Z" clip-rule="evenodd"/><path d="m10.89 14.778-3.267.007a.11.11 0 0 0-.102.076l-.25.722c-.022.076.03.152.103.152h1.27c.095 0 .146.122.08.19L6.7 18.105h.007l1.042 3.397c.022.076-.03.144-.103.144h-1.02a.104.104 0 0 1-.102-.076L6 19.83c-.029-.106-.168-.106-.205-.007l-.426 1.223a.109.109 0 0 0 0 .069l.39 1.481c.014.046.058.084.102.084H9.15c.073 0 .125-.076.103-.145l-1.329-4.277c-.014-.038 0-.084.03-.114l3.016-3.176c.066-.069.015-.19-.08-.19Z"/><path fill="#D8141C" d="m7.022 13-1.99.008a.11.11 0 0 0-.102.076l-.257.721c-.03.076.03.152.103.152h.836c.074 0 .125.076.103.152l-2.37 6.717a.108.108 0 0 1-.206 0l-1.703-4.848a.112.112 0 0 1 .103-.152h.859a.11.11 0 0 1 .103.076l.616 1.748a.108.108 0 0 0 .206 0l.954-2.72a.112.112 0 0 0-.103-.152H.108c-.073 0-.125.076-.103.152l3.127 8.996a.108.108 0 0 0 .205 0l3.787-10.774c.022-.076-.029-.152-.102-.152Z"/></svg>
